dist/img/icons/events/meat.svg

<svg width="46" height="47" viewBox="0 0 46 47" fill="none" xmlns="http://www.w3.org/2000/svg">
<g filter="url(#filter0_d_929_26419)">
<path fill-rule="evenodd" clip-rule="evenodd" d="M32.2696 8.01194C31.8636 7.97189 31.4539 8.03296 31.0767 8.18991C30.6995 8.34687 30.3663 8.59498 30.1067 8.91263C29.8472 9.2303 29.6694 9.60767 29.5895 10.0114C29.5096 10.4151 29.5301 10.8325 29.6491 11.2263C29.7682 11.6201 29.982 11.9779 30.2713 12.2682C30.66 12.6584 30.6601 13.2893 30.2716 13.6795L27.7839 16.1785C28.3669 16.5532 28.9138 16.9922 29.4174 17.4979C29.6194 17.7006 29.8106 17.9104 29.9914 18.1266L32.3412 15.7661C32.5288 15.5776 32.7838 15.4716 33.0498 15.4716C33.3158 15.4716 33.5708 15.5775 33.7585 15.766C34.0478 16.0565 34.4036 16.2705 34.7943 16.3895C35.1849 16.5085 35.5987 16.5289 35.999 16.449C36.3993 16.369 36.7741 16.191 37.0902 15.9305C37.4062 15.67 37.6538 15.3349 37.8105 14.9547C37.9673 14.5744 38.0283 14.161 37.9879 13.7512C37.9475 13.3415 37.8071 12.9482 37.5794 12.6065C37.3518 12.2647 37.0439 11.985 36.6835 11.7919C36.3231 11.5988 35.921 11.498 35.513 11.4983C35.2477 11.4985 34.9932 11.3932 34.8055 11.2057C34.6178 11.0183 34.5123 10.7639 34.5122 10.4986C34.5121 10.0869 34.4109 9.68172 34.2177 9.31907C34.0245 8.95644 33.7455 8.64768 33.4056 8.41983C33.0658 8.19199 32.6756 8.052 32.2696 8.01194ZM31.1287 19.819C32.4062 22.2235 32.7081 25.1426 32.1841 28.1233C31.4757 32.153 29.2515 36.3949 25.7233 39.939C25.7225 39.9398 25.7217 39.9406 25.7209 39.9414C24.9716 40.6938 23.9587 40.9929 22.9023 40.9999C21.8522 41.0068 20.6893 40.7295 19.4994 40.2516C17.1159 39.2944 14.4355 37.4565 11.9816 34.9927C9.52752 32.5288 7.69753 29.8381 6.74462 27.4463C6.26887 26.2521 5.99323 25.0861 6.00013 24.0339C6.00706 22.976 6.30392 21.9612 7.05266 21.2095C7.0687 21.1934 7.08486 21.1775 7.10115 21.1618C10.6211 17.6455 14.828 15.4272 18.8272 14.7186C21.3178 14.2773 23.7653 14.4193 25.9033 15.2327L28.2304 12.8951C28.0182 12.5567 27.8512 12.1903 27.7347 11.805C27.5208 11.0976 27.4841 10.3482 27.6276 9.62309C27.7711 8.89801 28.0905 8.21931 28.558 7.6472C29.0255 7.07505 29.6266 6.62711 30.3083 6.34341C30.9901 6.0597 31.7312 5.94912 32.4659 6.0216C33.2007 6.09408 33.906 6.34735 34.5194 6.75867C35.1329 7.16997 35.6354 7.72653 35.9828 8.37874C36.1865 8.76109 36.3333 9.16945 36.4199 9.59085C36.84 9.6777 37.2471 9.82486 37.6281 10.0291C38.2792 10.378 38.8341 10.8825 39.2439 11.4976C39.6537 12.1127 39.9058 12.8194 39.9783 13.5552C40.0507 14.291 39.9413 15.0335 39.6596 15.7169C39.3779 16.4004 38.9324 17.0039 38.3623 17.4738C37.7921 17.9438 37.115 18.2655 36.3908 18.4102C35.6666 18.5549 34.918 18.518 34.2115 18.3027C33.8293 18.1863 33.4658 18.0197 33.1302 17.8084L31.1287 19.819ZM8.4519 22.6391C8.45833 22.633 8.4647 22.6267 8.47101 22.6204C8.48015 22.6112 8.48929 22.6021 8.49844 22.5929C8.77203 22.3352 9.20775 22.1555 9.88455 22.151C10.592 22.1463 11.4889 22.3375 12.5288 22.7552C14.6051 23.589 17.0651 25.2505 19.375 27.5696C21.6847 29.8886 23.34 32.359 24.171 34.4449C24.5872 35.4896 24.7782 36.3916 24.7735 37.1039C24.7689 37.8106 24.576 38.2569 24.3039 38.5301C24.0324 38.8026 23.59 38.9953 22.889 38.9999C22.1816 39.0046 21.2847 38.8134 20.2447 38.3957C18.1685 37.5619 15.7085 35.9005 13.3986 33.5813C11.0889 31.2623 9.43361 28.7919 8.6026 26.7061C8.18638 25.6613 7.99541 24.7593 8.00008 24.047C8.00462 23.3558 8.18925 22.9137 8.4519 22.6391ZM26.649 35.7921C26.5251 35.1184 26.3126 34.4165 26.029 33.7046C25.0761 31.3128 23.2461 28.6221 20.792 26.1582C18.3381 23.6944 15.6577 21.8565 13.2742 20.8993C12.5621 20.6133 11.8597 20.3992 11.1854 20.2748C13.7759 18.3614 16.5572 17.1519 19.1761 16.6879C22.7438 16.0558 25.913 16.8128 28.0003 18.9093L28.0006 18.9095C30.0896 21.0062 30.8446 24.1913 30.2143 27.777C29.7524 30.4044 28.5501 33.1937 26.649 35.7921ZM14.7662 29.0359C15.1575 28.6461 15.7907 28.6474 16.1804 29.0387L17.9231 30.7883C18.3128 31.1796 18.3115 31.8128 17.9202 32.2025C17.5289 32.5923 16.8958 32.591 16.506 32.1997L14.7634 30.4501C14.3736 30.0588 14.3749 29.4256 14.7662 29.0359Z" fill="#FF2200"/>
<path fill-rule="evenodd" clip-rule="evenodd" d="M32.2696 8.01194C31.8636 7.97189 31.4539 8.03296 31.0767 8.18991C30.6995 8.34687 30.3663 8.59498 30.1067 8.91263C29.8472 9.2303 29.6694 9.60767 29.5895 10.0114C29.5096 10.4151 29.5301 10.8325 29.6491 11.2263C29.7682 11.6201 29.982 11.9779 30.2713 12.2682C30.66 12.6584 30.6601 13.2893 30.2716 13.6795L27.7839 16.1785C28.3669 16.5532 28.9138 16.9922 29.4174 17.4979C29.6194 17.7006 29.8106 17.9104 29.9914 18.1266L32.3412 15.7661C32.5288 15.5776 32.7838 15.4716 33.0498 15.4716C33.3158 15.4716 33.5708 15.5775 33.7585 15.766C34.0478 16.0565 34.4036 16.2705 34.7943 16.3895C35.1849 16.5085 35.5987 16.5289 35.999 16.449C36.3993 16.369 36.7741 16.191 37.0902 15.9305C37.4062 15.67 37.6538 15.3349 37.8105 14.9547C37.9673 14.5744 38.0283 14.161 37.9879 13.7512C37.9475 13.3415 37.8071 12.9482 37.5794 12.6065C37.3518 12.2647 37.0439 11.985 36.6835 11.7919C36.3231 11.5988 35.921 11.498 35.513 11.4983C35.2477 11.4985 34.9932 11.3932 34.8055 11.2057C34.6178 11.0183 34.5123 10.7639 34.5122 10.4986C34.5121 10.0869 34.4109 9.68172 34.2177 9.31907C34.0245 8.95644 33.7455 8.64768 33.4056 8.41983C33.0658 8.19199 32.6756 8.052 32.2696 8.01194ZM31.1287 19.819C32.4062 22.2235 32.7081 25.1426 32.1841 28.1233C31.4757 32.153 29.2515 36.3949 25.7233 39.939C25.7225 39.9398 25.7217 39.9406 25.7209 39.9414C24.9716 40.6938 23.9587 40.9929 22.9023 40.9999C21.8522 41.0068 20.6893 40.7295 19.4994 40.2516C17.1159 39.2944 14.4355 37.4565 11.9816 34.9927C9.52752 32.5288 7.69753 29.8381 6.74462 27.4463C6.26887 26.2521 5.99323 25.0861 6.00013 24.0339C6.00706 22.976 6.30392 21.9612 7.05266 21.2095C7.0687 21.1934 7.08486 21.1775 7.10115 21.1618C10.6211 17.6455 14.828 15.4272 18.8272 14.7186C21.3178 14.2773 23.7653 14.4193 25.9033 15.2327L28.2304 12.8951C28.0182 12.5567 27.8512 12.1903 27.7347 11.805C27.5208 11.0976 27.4841 10.3482 27.6276 9.62309C27.7711 8.89801 28.0905 8.21931 28.558 7.6472C29.0255 7.07505 29.6266 6.62711 30.3083 6.34341C30.9901 6.0597 31.7312 5.94912 32.4659 6.0216C33.2007 6.09408 33.906 6.34735 34.5194 6.75867C35.1329 7.16997 35.6354 7.72653 35.9828 8.37874C36.1865 8.76109 36.3333 9.16945 36.4199 9.59085C36.84 9.6777 37.2471 9.82486 37.6281 10.0291C38.2792 10.378 38.8341 10.8825 39.2439 11.4976C39.6537 12.1127 39.9058 12.8194 39.9783 13.5552C40.0507 14.291 39.9413 15.0335 39.6596 15.7169C39.3779 16.4004 38.9324 17.0039 38.3623 17.4738C37.7921 17.9438 37.115 18.2655 36.3908 18.4102C35.6666 18.5549 34.918 18.518 34.2115 18.3027C33.8293 18.1863 33.4658 18.0197 33.1302 17.8084L31.1287 19.819ZM8.4519 22.6391C8.45833 22.633 8.4647 22.6267 8.47101 22.6204C8.48015 22.6112 8.48929 22.6021 8.49844 22.5929C8.77203 22.3352 9.20775 22.1555 9.88455 22.151C10.592 22.1463 11.4889 22.3375 12.5288 22.7552C14.6051 23.589 17.0651 25.2505 19.375 27.5696C21.6847 29.8886 23.34 32.359 24.171 34.4449C24.5872 35.4896 24.7782 36.3916 24.7735 37.1039C24.7689 37.8106 24.576 38.2569 24.3039 38.5301C24.0324 38.8026 23.59 38.9953 22.889 38.9999C22.1816 39.0046 21.2847 38.8134 20.2447 38.3957C18.1685 37.5619 15.7085 35.9005 13.3986 33.5813C11.0889 31.2623 9.43361 28.7919 8.6026 26.7061C8.18638 25.6613 7.99541 24.7593 8.00008 24.047C8.00462 23.3558 8.18925 22.9137 8.4519 22.6391ZM26.649 35.7921C26.5251 35.1184 26.3126 34.4165 26.029 33.7046C25.0761 31.3128 23.2461 28.6221 20.792 26.1582C18.3381 23.6944 15.6577 21.8565 13.2742 20.8993C12.5621 20.6133 11.8597 20.3992 11.1854 20.2748C13.7759 18.3614 16.5572 17.1519 19.1761 16.6879C22.7438 16.0558 25.913 16.8128 28.0003 18.9093L28.0006 18.9095C30.0896 21.0062 30.8446 24.1913 30.2143 27.777C29.7524 30.4044 28.5501 33.1937 26.649 35.7921ZM14.7662 29.0359C15.1575 28.6461 15.7907 28.6474 16.1804 29.0387L17.9231 30.7883C18.3128 31.1796 18.3115 31.8128 17.9202 32.2025C17.5289 32.5923 16.8958 32.591 16.506 32.1997L14.7634 30.4501C14.3736 30.0588 14.3749 29.4256 14.7662 29.0359Z" stroke="#FC6A00" stroke-width="0.5"/>
</g>
<defs>
<filter id="filter0_d_929_26419" x="0.75" y="0.75" width="44.5" height="45.5" filterUnits="userSpaceOnUse" color-interpolation-filters="sRGB">
<feFlood flood-opacity="0" result="BackgroundImageFix"/>
<feColorMatrix in="SourceAlpha" type="matrix" values="0 0 0 0 0 0 0 0 0 0 0 0 0 0 0 0 0 0 127 0" result="hardAlpha"/>
<feOffset/>
<feGaussianBlur stdDeviation="2.5"/>
<feComposite in2="hardAlpha" operator="out"/>
<feColorMatrix type="matrix" values="0 0 0 0 0.843137 0 0 0 0 0.659373 0 0 0 0 0.00784314 0 0 0 1 0"/>
<feBlend mode="normal" in2="BackgroundImageFix" result="effect1_dropShadow_929_26419"/>
<feBlend mode="normal" in="SourceGraphic" in2="effect1_dropShadow_929_26419" result="shape"/>
</filter>
</defs>
</svg>

<svg width="46" height="47" fill="none" xmlns="http://www.w3.org/2000/svg"><g filter="url(#a)" clip-rule="evenodd"><path fill-rule="evenodd" d="M32.27 8.012a2.473 2.473 0 0 0-2.163.9 2.506 2.506 0 0 0 .164 3.356 1 1 0 0 1 0 1.412l-2.487 2.498a9.71 9.71 0 0 1 2.207 1.949l2.35-2.36a1 1 0 0 1 1.417-.001 2.483 2.483 0 0 0 2.241.683 2.48 2.48 0 0 0 1.811-1.494 2.511 2.511 0 0 0-.23-2.348 2.489 2.489 0 0 0-2.067-1.109 1 1 0 0 1-1-1 2.51 2.51 0 0 0-1.107-2.078 2.476 2.476 0 0 0-1.136-.408Zm-1.141 11.807c1.277 2.405 1.58 5.324 1.055 8.304-.708 4.03-2.932 8.272-6.46 11.816-.002 0-.002.002-.003.002-.75.753-1.762 1.052-2.819 1.059-1.05.007-2.213-.27-3.403-.748-2.383-.958-5.063-2.796-7.517-5.26-2.454-2.463-4.284-5.154-5.237-7.546-.476-1.194-.752-2.36-.745-3.412.007-1.058.304-2.073 1.053-2.825a3.35 3.35 0 0 1 .048-.047c3.52-3.517 7.727-5.735 11.726-6.443 2.49-.442 4.938-.3 7.076.514l2.327-2.338a4.507 4.507 0 0 1 2.078-6.552 4.473 4.473 0 0 1 4.211.416 4.493 4.493 0 0 1 1.9 2.832 4.475 4.475 0 0 1 2.825 1.907 4.508 4.508 0 0 1-.882 5.976 4.48 4.48 0 0 1-5.232.334L31.13 19.82Zm-22.677 2.82a1.05 1.05 0 0 0 .019-.019l.027-.027c.274-.258.71-.438 1.387-.442.707-.005 1.604.186 2.644.604 2.076.834 4.536 2.495 6.846 4.815 2.31 2.319 3.965 4.789 4.796 6.875.416 1.045.607 1.947.602 2.659-.004.707-.197 1.153-.47 1.426-.27.273-.713.465-1.414.47-.707.005-1.604-.187-2.644-.604-2.076-.834-4.537-2.495-6.846-4.815-2.31-2.319-3.965-4.79-4.796-6.875-.417-1.045-.608-1.947-.603-2.659.005-.691.19-1.133.452-1.408Zm18.197 13.153a11.133 11.133 0 0 0-.62-2.087c-.953-2.392-2.783-5.083-5.237-7.547-2.454-2.464-5.134-4.302-7.518-5.259a11.02 11.02 0 0 0-2.089-.624c2.59-1.914 5.372-3.123 7.991-3.587 3.568-.632 6.737.125 8.824 2.221 2.09 2.097 2.845 5.282 2.214 8.868-.462 2.627-1.664 5.417-3.565 8.015Zm-11.883-6.756a1 1 0 0 1 1.414.003l1.743 1.75a1 1 0 0 1-1.417 1.41l-1.743-1.749a1 1 0 0 1 .003-1.414Z" fill="#F20"/><path d="M32.27 8.012a2.473 2.473 0 0 0-2.163.9 2.506 2.506 0 0 0 .164 3.356 1 1 0 0 1 0 1.412l-2.487 2.498a9.71 9.71 0 0 1 2.207 1.949l2.35-2.36a1 1 0 0 1 1.417-.001 2.483 2.483 0 0 0 2.241.683 2.48 2.48 0 0 0 1.811-1.494 2.511 2.511 0 0 0-.23-2.348 2.489 2.489 0 0 0-2.067-1.109 1 1 0 0 1-1-1 2.51 2.51 0 0 0-1.107-2.078 2.476 2.476 0 0 0-1.136-.408Zm-1.141 11.807c1.277 2.405 1.58 5.324 1.055 8.304-.708 4.03-2.932 8.272-6.46 11.816-.002 0-.002.002-.003.002-.75.753-1.762 1.052-2.819 1.059-1.05.007-2.213-.27-3.403-.748-2.383-.958-5.063-2.796-7.517-5.26-2.454-2.463-4.284-5.154-5.237-7.546-.476-1.194-.752-2.36-.745-3.412.007-1.058.304-2.073 1.053-2.825a3.35 3.35 0 0 1 .048-.047c3.52-3.517 7.727-5.735 11.726-6.443 2.49-.442 4.938-.3 7.076.514l2.327-2.338a4.507 4.507 0 0 1 2.078-6.552 4.473 4.473 0 0 1 4.211.416 4.493 4.493 0 0 1 1.9 2.832 4.475 4.475 0 0 1 2.825 1.907 4.508 4.508 0 0 1-.882 5.976 4.48 4.48 0 0 1-5.232.334L31.13 19.82Zm-22.677 2.82a1.05 1.05 0 0 0 .019-.019l.027-.027c.274-.258.71-.438 1.387-.442.707-.005 1.604.186 2.644.604 2.076.834 4.536 2.495 6.846 4.815 2.31 2.319 3.965 4.789 4.796 6.875.416 1.045.607 1.947.602 2.659-.004.707-.197 1.153-.47 1.426-.27.273-.713.465-1.414.47-.707.005-1.604-.187-2.644-.604-2.076-.834-4.537-2.495-6.846-4.815-2.31-2.319-3.965-4.79-4.796-6.875-.417-1.045-.608-1.947-.603-2.659.005-.691.19-1.133.452-1.408Zm18.197 13.153a11.133 11.133 0 0 0-.62-2.087c-.953-2.392-2.783-5.083-5.237-7.547-2.454-2.464-5.134-4.302-7.518-5.259a11.02 11.02 0 0 0-2.089-.624c2.59-1.914 5.372-3.123 7.991-3.587 3.568-.632 6.737.125 8.824 2.221 2.09 2.097 2.845 5.282 2.214 8.868-.462 2.627-1.664 5.417-3.565 8.015Zm-11.883-6.756a1 1 0 0 1 1.414.003l1.743 1.75a1 1 0 0 1-1.417 1.41l-1.743-1.749a1 1 0 0 1 .003-1.414Z" stroke="#FC6A00" stroke-width=".5"/></g><defs><filter id="a" x=".75" y=".75" width="44.5" height="45.5" filterUnits="userSpaceOnUse" color-interpolation-filters="sRGB"><feFlood flood-opacity="0" result="BackgroundImageFix"/><feColorMatrix in="SourceAlpha" values="0 0 0 0 0 0 0 0 0 0 0 0 0 0 0 0 0 0 127 0" result="hardAlpha"/><feOffset/><feGaussianBlur stdDeviation="2.5"/><feComposite in2="hardAlpha" operator="out"/><feColorMatrix values="0 0 0 0 0.843137 0 0 0 0 0.659373 0 0 0 0 0.00784314 0 0 0 1 0"/><feBlend in2="BackgroundImageFix" result="effect1_dropShadow_929_26419"/><feBlend in="SourceGraphic" in2="effect1_dropShadow_929_26419" result="shape"/></filter></defs></svg>
